src/static/img/advantages/quality-image.svg

<svg width="100" height="100" viewBox="0 0 100 100" fill="none" xmlns="http://www.w3.org/2000/svg">
<g>
<path d="M99.5704 33.2886L83.6626 11.213C83.2348 10.6193 82.5476 10.2674 81.8157 10.2674H18.1843C17.4524 10.2674 16.7654 10.6191 16.3374 11.213L0.429587 33.2886C-0.0698736 33.9817 -0.139306 34.8964 0.249972 35.6568C0.341942 35.8366 0.45736 35.9992 0.589168 36.1449L48.3573 88.983C48.7889 89.4603 49.4024 89.7326 50.046 89.7326C50.6896 89.7326 51.3031 89.4601 51.7347 88.983L99.4496 36.0968C99.5641 35.963 99.6674 35.8177 99.7498 35.6568C100.139 34.8962 100.07 33.9815 99.5704 33.2886ZM93.2771 32.3429H70.3543L81.8157 16.4378L93.2771 32.3429ZM62.8476 36.8959L50.0396 79.5599L37.1575 36.8959H62.8476ZM38.5386 32.3429L50 16.4378L61.4614 32.3429H38.5386ZM54.4464 14.8204H77.3693L65.9078 30.7257L54.4464 14.8204ZM34.0922 30.7255L22.6308 14.8204H45.5538L34.0922 30.7255ZM32.4017 36.8959L44.9367 78.4103L7.40359 36.8959H32.4017ZM67.6013 36.8959H92.6884L55.1301 78.4383L67.6013 36.8959ZM18.1843 16.4378L29.6457 32.3429H6.72293L18.1843 16.4378Z" fill="#114B63"/>
</g>
</svg>

<svg width="100" height="100" fill="none" xmlns="http://www.w3.org/2000/svg"><path d="M99.57 33.289 83.663 11.213a2.276 2.276 0 0 0-1.847-.946H18.184c-.732 0-1.419.352-1.847.946L.43 33.289a2.277 2.277 0 0 0 .16 2.856l47.767 52.838a2.277 2.277 0 0 0 3.378 0L99.45 36.097a2.27 2.27 0 0 0 .3-.44c.389-.76.32-1.675-.18-2.368Zm-6.293-.946H70.354l11.462-15.905 11.461 15.905Zm-30.43 4.553L50.04 79.56 37.157 36.896h25.69ZM38.54 32.343 50 16.438l11.461 15.905H38.54ZM54.446 14.82H77.37L65.908 30.726 54.446 14.82ZM34.092 30.725 22.631 14.82h22.923L34.092 30.725Zm-1.69 6.17L44.937 78.41 7.404 36.896h24.998Zm35.2 0h25.086L55.13 78.439l12.471-41.542ZM18.183 16.439l11.462 15.905H6.723l11.461-15.905Z" fill="#114B63"/></svg>
